src/view/frontend/web/svg/heroicons/solid/trash.svg

<svg viewBox="0 0 20 20" fill="currentColor" xmlns="http://www.w3.org/2000/svg">

<path fill-rule="evenodd" clip-rule="evenodd" d="M9 2C8.62123 2 8.27497 2.214 8.10557 2.55279L7.38197 4H4C3.44772 4 3 4.44772 3 5C3 5.55228 3.44772 6 4 6L4 16C4 17.1046 4.89543 18 6 18H14C15.1046 18 16 17.1046 16 16V6C16.5523 6 17 5.55228 17 5C17 4.44772 16.5523 4 16 4H12.618L11.8944 2.55279C11.725 2.214 11.3788 2 11 2H9ZM7 8C7 7.44772 7.44772 7 8 7C8.55228 7 9 7.44772 9 8V14C9 14.5523 8.55228 15 8 15C7.44772 15 7 14.5523 7 14V8ZM12 7C11.4477 7 11 7.44772 11 8V14C11 14.5523 11.4477 15 12 15C12.5523 15 13 14.5523 13 14V8C13 7.44772 12.5523 7 12 7Z" />
</svg>

<svg xmlns="http://www.w3.org/2000/svg" fill="currentColor" viewBox="0 0 20 20"><path fill-rule="evenodd" d="M9 2a1 1 0 0 0-.894.553L7.382 4H4a1 1 0 0 0 0 2v10a2 2 0 0 0 2 2h8a2 2 0 0 0 2-2V6a1 1 0 1 0 0-2h-3.382l-.724-1.447A1 1 0 0 0 11 2H9ZM7 8a1 1 0 0 1 2 0v6a1 1 0 1 1-2 0V8Zm5-1a1 1 0 0 0-1 1v6a1 1 0 1 0 2 0V8a1 1 0 0 0-1-1Z" clip-rule="evenodd"/></svg>
